public/socials/facebook.svg

<svg xmlns="http://www.w3.org/2000/svg" viewBox="0 0 640 640"><path fill="#a7a7a8" d="M576 320c0-141.4-114.6-256-256-256S64 178.6 64 320c0 120 82.7 220.8 194.2 248.5V398.2h-52.8V320h52.8v-33.7c0-87.1 39.4-127.5 125-127.5 16.2 0 44.2 3.2 55.7 6.4V236c-6-.6-16.5-1-29.6-1-42 0-58.2 15.9-58.2 57.2V320h83.6l-14.4 78.2H351v175.9C477.8 558.8 576 450.9 576 320"/></svg>

<svg xmlns="http://www.w3.org/2000/svg" viewBox="0 0 640 640"><!--!Font Awesome Free 7.2.0 by @fontawesome - https://fontawesome.com License - https://fontawesome.com/license/free Copyright 2026 Fonticons, Inc.--><path fill="#a7a7a8" d="M576 320C576 178.6 461.4 64 320 64C178.6 64 64 178.6 64 320C64 440 146.7 540.8 258.2 568.5L258.2 398.2L205.4 398.2L205.4 320L258.2 320L258.2 286.3C258.2 199.2 297.6 158.8 383.2 158.8C399.4 158.8 427.4 162 438.9 165.2L438.9 236C432.9 235.4 422.4 235 409.3 235C367.3 235 351.1 250.9 351.1 292.2L351.1 320L434.7 320L420.3 398.2L351 398.2L351 574.1C477.8 558.8 576 450.9 576 320z"/></svg>
